packages/core/src/svgs/tokens/mono/WAN.svg

<svg width="24" height="24" viewBox="0 0 24 24" fill="none" xmlns="http://www.w3.org/2000/svg">
<path d="M3.87 7.74536L6.03801 8.82937V14.0326L12.0001 10.7373L17.9621 14.0326V8.82937L20.1301 7.74536V17.7183L12.0001 13.2196L3.87 17.7183V7.74536Z" fill="white"/>
<path d="M12.0002 19.5014L7.95134 16.981L5.84294 18.2548L12.0002 22L18.244 18.2439L16.1194 16.9756L12.0002 19.5068V19.5014ZM12.0002 4.63415L6.36868 7.61518L4.10852 6.62873L12.0002 2L20.0218 6.6233L17.6261 7.61518L12.0002 4.63956V4.63415Z" fill="white"/>
</svg>

<svg xmlns="http://www.w3.org/2000/svg" width="24" height="24" fill="none" viewBox="0 0 24 24">
    <path fill="#fff" d="M3.87 7.745 6.038 8.83v5.204L12 10.737l5.962 3.296V8.829l2.168-1.084v9.973L12 13.22l-8.13 4.498z"/>
    <path fill="#fff" d="m12 19.501-4.049-2.52-2.108 1.274L12 22l6.244-3.756-2.125-1.268L12 19.506zm0-14.867L6.37 7.615l-2.26-.986L12 2l8.022 4.623-2.396.992L12 4.64z"/>
</svg>
